img/vector.svg

<svg fill="none" height="50" viewBox="0 0 75 50" width="75" xmlns="http://www.w3.org/2000/svg"><path d="m71.0788 26.3628 3.1934 18.2398c.4182 2.3889-1.1661 4.6687-3.5509 5.1096-1.9257.356-3.8562-.5974-4.7441-2.343l-7.8939-15.5196c-4.0726-8.0068-13.3111-11.9274-21.8993-9.2937l-9.0072 2.7623c-6.7516 2.0706-14.0274-.9005-17.39986-7.1051l-9.511881-17.499624 51.060441 6.718154c10.0131 1.31744 18.0116 8.98307 19.7533 18.93117z" fill="#0d06c1"/></svg>

<svg width="75" height="50" viewBox="0 0 75 50" fill="none" xmlns="http://www.w3.org/2000/svg">
<path d="M71.0788 26.3628L74.2722 44.6026C74.6904 46.9915 73.1061 49.2713 70.7213 49.7122C68.7956 50.0682 66.8651 49.1148 65.9772 47.3692L58.0833 31.8496C54.0107 23.8428 44.7722 19.9222 36.184 22.5559L27.1768 25.3182C20.4252 27.3888 13.1494 24.4177 9.77694 18.2131L0.265059 0.713476L51.3255 7.43163C61.3386 8.74907 69.3371 16.4147 71.0788 26.3628Z" fill="#0D06C1"/>
</svg>
